public/images/lines.svg

<svg fill="none" height="1585" viewBox="0 0 1578 1585" width="1578" xmlns="http://www.w3.org/2000/svg"><path d="m1159.81 480.829.01.01 139.61 154.743c33.03 36.612 43.92 88.111 28.53 134.96l-65.02 198.007v.013l-64.21 198.268c-15.19 46.92-54.35 82.1-102.61 92.2l-203.993 42.69h-.013l-203.814 43.53c-48.222 10.3-98.266-6.02-131.146-42.77l-138.969-155.31-.009-.01-139.604-154.742c-33.031-36.613-43.919-88.112-28.535-134.961l65.021-198.007.005-.013 64.208-198.272c15.192-46.912 54.348-82.091 102.612-92.192l203.99-42.694.013-.003 203.814-43.529c48.222-10.299 98.266 6.021 131.15 42.768z" opacity=".04" stroke="#007bff" stroke-width="6.58471"/><path d="m429.5 1160 128.933 142.9c31.484 34.9 80.346 53.99 126.067 43.1" opacity=".2" stroke="#007bff" stroke-width="6.58471"/><path d="m1318.38 338.374v.005l221.5 245.519c33.43 37.051 44.45 89.167 28.88 136.577l-103.17 314.165v.01l-101.88 314.58c-15.37 47.47-54.99 83.07-103.84 93.3l-323.653 67.73-.007.01-323.376 69.06c-48.8 10.42-99.443-6.09-132.717-43.28l-220.492-246.42-.004-.01-221.5006-245.52c-33.42591-37.05-44.44506-89.166-28.87673-136.575l103.16533-314.165.002-.006 101.876-314.585c15.373-47.473 54.998-83.074 103.84-93.296l323.657-67.738.006-.002 323.377-69.0651c48.803-10.4225 99.443 6.0929 132.713 43.2802z" opacity=".04" stroke="#007bff" stroke-width="3.29235"/><path d="m112.5 594 100.926-314.393c15.496-48.271 55.756-84.479 105.394-94.787l324.18-67.32" opacity=".2" stroke="#007bff" stroke-width="3.29235"/><g fill="#151515" stroke="#17171a"><circle cx="253.522" cy="903.609" r="123.316" stroke-width="6.3239"/><circle cx="348.891" cy="532.891" r="79.0165" stroke-width="6.58471"/><circle cx="1204.55" cy="1123.29" r="82.0847" stroke-width="6.02456"/><circle cx="1069.71" cy="82.7092" r="80.2511" stroke-width="4.11544"/><circle cx="1336.24" cy="646.054" r="133.014" stroke-width="6.08064"/></g><path d="m1339.24 779.108c-75.14 0-136.06-60.913-136.06-136.054" opacity=".2" stroke="#007bff" stroke-width="6.08064"/></svg>

<svg width="1578" height="1585" viewBox="0 0 1578 1585" fill="none" xmlns="http://www.w3.org/2000/svg">
<path opacity="0.04" d="M1159.81 480.829L1159.82 480.839L1299.43 635.582C1332.46 672.194 1343.35 723.693 1327.96 770.542L1262.94 968.549L1262.94 968.562L1198.73 1166.83C1183.54 1213.75 1144.38 1248.93 1096.12 1259.03L892.127 1301.72L892.114 1301.72L688.3 1345.25C640.078 1355.55 590.034 1339.23 557.154 1302.48L418.185 1147.17L418.176 1147.16L278.572 992.418C245.541 955.805 234.653 904.306 250.037 857.457L315.058 659.45L315.063 659.437L379.271 461.165C394.463 414.253 433.619 379.074 481.883 368.973L685.873 326.279L685.886 326.276L889.7 282.747C937.922 272.448 987.966 288.768 1020.85 325.515L1159.81 480.829Z" stroke="#007BFF" stroke-width="6.58471"/>
<path opacity="0.2" d="M429.5 1160L558.433 1302.9C589.917 1337.8 638.779 1356.89 684.5 1346V1346" stroke="#007BFF" stroke-width="6.58471"/>
<path opacity="0.04" d="M1318.38 338.374L1318.38 338.379L1539.88 583.898C1573.31 620.949 1584.33 673.065 1568.76 720.475L1465.59 1034.64L1465.59 1034.65L1363.71 1349.23C1348.34 1396.7 1308.72 1432.3 1259.87 1442.53L936.217 1510.26L936.21 1510.27L612.834 1579.33C564.034 1589.75 513.391 1573.24 480.117 1536.05L259.625 1289.63L259.621 1289.62L38.1204 1044.1C4.69449 1007.05 -6.32466 954.934 9.24367 907.525L112.409 593.36L112.411 593.354L214.287 278.769C229.66 231.296 269.285 195.695 318.127 185.473L641.784 117.735L641.79 117.733L965.167 48.6679C1013.97 38.2454 1064.61 54.7608 1097.88 91.9481L1318.38 338.374Z" stroke="#007BFF" stroke-width="3.29235"/>
<path opacity="0.2" d="M112.5 594L213.426 279.607C228.922 231.336 269.182 195.128 318.82 184.82L643 117.5" stroke="#007BFF" stroke-width="3.29235"/>
<circle cx="253.522" cy="903.609" r="123.316" fill="#151515" stroke="#17171A" stroke-width="6.3239"/>
<circle cx="348.891" cy="532.891" r="79.0165" fill="#151515" stroke="#17171A" stroke-width="6.58471"/>
<circle cx="1204.55" cy="1123.29" r="82.0847" fill="#151515" stroke="#17171A" stroke-width="6.02456"/>
<circle cx="1069.71" cy="82.7092" r="80.2511" fill="#151515" stroke="#17171A" stroke-width="4.11544"/>
<circle cx="1336.24" cy="646.054" r="133.014" fill="#151515" stroke="#17171A" stroke-width="6.08064"/>
<path opacity="0.2" d="M1339.24 779.108C1264.1 779.108 1203.18 718.195 1203.18 643.054" stroke="#007BFF" stroke-width="6.08064"/>
</svg>
